NotoEmoji/1f1ec-1f1f7.svg

<svg xmlns="http://www.w3.org/2000/svg" viewBox="0 0 36 36"><path fill="#0D5EB0" d="M4 31h28c.702 0 1.361-.182 1.935-.5H2.065c.574.318 1.233.5 1.935.5z"/><path fill="#FFF" d="M8.5 19.5H0V22h36v-2.5H14zM0 27c0 .17.014.336.035.5h35.931c.02-.164.034-.33.034-.5v-2H0v2zm14-13h22v2.5H14zm0-5.5V11h22V9c0-.17-.014-.336-.035-.5H14z"/><path fill="#0D5EB0" d="M14 11h22v3H14zM0 22h36v3H0zm2.065 8.5h31.87c1.092-.605 1.869-1.707 2.031-3H.035c.161 1.293.938 2.395 2.03 3zM0 14h5.5v5.5H0zm14 2.5V14H8.5v5.5H36v-3zm19.935-11C33.361 5.182 32.702 5 32 5H4c-.702 0-1.361.182-1.935.5C.973 6.105.196 7.207.034 8.5.014 8.664 0 8.83 0 9v2h5.5V5.5h3V11H14V8.5h21.965c-.161-1.293-.938-2.395-2.03-3z"/><path fill="#FFF" d="M8.5 11V5h-3v6H0v3h5.5v5.5h3V14H14v-3z"/></svg>

<svg viewBox="0 0 36 36" xmlns="http://www.w3.org/2000/svg"><path d="m4 31h28c.7 0 1.36-.18 1.94-.5h-31.87c.57.32 1.23.5 1.94.5z" fill="#0d5eb0"/><path d="m8.5 19.5h-8.5v2.5h36v-2.5h-22zm-8.5 7.5c0 .17.01.34.04.5h35.93c.02-.16.03-.33.03-.5v-2h-36zm14-13h22v2.5h-22zm0-5.5v2.5h22v-2c0-.17-.01-.34-.04-.5z" fill="#fff"/><path d="m14 11h22v3h-22zm-14 11h36v3h-36zm2.07 8.5h31.87c1.09-.61 1.87-1.71 2.03-3h-35.93c.16 1.29.94 2.4 2.03 3zm-2.07-16.5h5.5v5.5h-5.5zm14 2.5v-2.5h-5.5v5.5h27.5v-3zm19.93-11c-.57-.32-1.23-.5-1.93-.5h-28c-.7 0-1.36.18-1.94.5-1.09.61-1.86 1.71-2.03 3-.02.16-.03.33-.03.5v2h5.5v-5.5h3v5.5h5.5v-2.5h21.97c-.16-1.29-.94-2.4-2.03-3z" fill="#0d5eb0"/><path d="m8.5 11v-6h-3v6h-5.5v3h5.5v5.5h3v-5.5h5.5v-3z" fill="#fff"/></svg>
